X:1
T: Major Hamish Robertson
C:
R:Strathspey
Q: 128
K:A
M:4/4
L:1/16
E2|:A4 c4 fe^de a4|EA3 c4 BE3 edcB|A4 c4 fe^de a3e|((3f2g2a2) B3G A8|
((3A2E2E2) ((3c2A2A2) e3f1/2g1/2 a4|ea3 c'4 ((3b2g2e2) ((3d2c2B2) |A4 cA3 ((3e2d2g2) a4|ae3 b3g a4 A4|
a4 e3a c3e A4|=g4 B3d ((3=G2A2B2) ((3d2B2G2) |A4 c3A ((3a2e2c2) ((3A2E2C2) |E4 ((3d2B2G2) A8|
a4 e3a c3e A3c|E4 c3A ((3B2c2d2) e3f1/2g1/2|a4 e3a c3e A3e|((3f2g2a2) b3g a8:|
